assets/assets/svgs/desktop_dev.svg

<svg xmlns="http://www.w3.org/2000/svg" viewBox="91.817 75.327 122.88 101.9" width="122.88" height="101.9" xmlns:v="https://vecta.io/nano"><path d="M95.157 75.327h116.2a3.35 3.35 0 0 1 3.34 3.34v77a3.35 3.35 0 0 1-3.34 3.34h-116.2a3.35 3.35 0 0 1-3.34-3.36v-77a3.35 3.35 0 0 1 3.34-3.32zm9.28 23.21h8.64a.76.76 0 0 1 .74.79v2.9a.76.76 0 0 1-.76.75h-8.62a.76.76 0 0 1-.76-.75v-2.9a.76.76 0 0 1 .76-.75v-.04zm0 24.37h30.24a.76.76 0 0 1 .76.75v2.94a.76.76 0 0 1-.76.75h-30.24a.76.76 0 0 1-.76-.75v-2.94a.76.76 0 0 1 .76-.75zm0-12.41h18.72a.77.77 0 0 1 .76.76v2.94a.77.77 0 0 1-.76.75h-18.72a.76.76 0 0 1-.76-.75v-2.94a.76.76 0 0 1 .76-.76zm0 24.81h43.2a.76.76 0 0 1 .75.76v2.94a.76.76 0 0 1-.75.75h-43.2a.76.76 0 0 1-.76-.75v-2.94a.76.76 0 0 1 .76-.76zm33.67 28.29h30.3c.08 5.24 2.24 9.94 8.09 13.63h-46.48c4.71-3.41 8.11-7.54 8.09-13.63zm72.22-76.62v59.19a3 3 0 0 1-3 3H99.147a3 3 0 0 1-2.95-3v-59.19h27.16v3.87a2 2 0 0 0 2 2h3.05a15.79 15.79 0 0 0 1.41 3.87l-2.34 2.35a2 2 0 0 0 0 2.79l2.91 2.92a2 2 0 0 0 2.8 0l2.15-2.16c1.182.736 2.456 1.311 3.79 1.71v3.32a2 2 0 0 0 2 2h4.13a2 2 0 0 0 2-2v-3c1.357-.308 2.666-.799 3.89-1.46l2.35 2.35a2 2 0 0 0 2.79 0l2.92-2.92a2 2 0 0 0 0-2.79l-2.15-2.15c.738-1.179 1.316-2.45 1.72-3.78h3.32a2 2 0 0 0 2-2v-4.13c-.001-.272-.055-.54-.16-.79h46.39zm-13.3 14.26l3.24 3.24a2.19 2.19 0 0 1 0 3.09l-2.61 2.61c.73 1.358 1.274 2.807 1.62 4.31h3.37a2.2 2.2 0 0 1 2.17 2.19v4.58a2.19 2.19 0 0 1-2.19 2.19h-3.68a17.3 17.3 0 0 1-1.91 4.19l2.39 2.39a2.2 2.2 0 0 1 0 3.1l-3.22 3.2a2.2 2.2 0 0 1-3.1 0l-2.6-2.61c-1.361.729-2.814 1.274-4.32 1.62v3.38a2.2 2.2 0 0 1-2.19 2.19h-4.58a2.2 2.2 0 0 1-2.19-2.19v-3.65a17.51 17.51 0 0 1-4.19-1.91l-2.39 2.39a2.2 2.2 0 0 1-3.1 0l-3.23-3.22a2.19 2.19 0 0 1 0-3.09l2.6-2.61a17.73 17.73 0 0 1-1.61-4.3h-3.38a2.2 2.2 0 0 1-2.19-2.19v-4.61a2.2 2.2 0 0 1 2.19-2.2h3.69c.443-1.477 1.086-2.887 1.91-4.19l-2.39-2.39a2.18 2.18 0 0 1 0-3.1l3.23-3.24a2.2 2.2 0 0 1 3.1 0l2.61 2.61a17.31 17.31 0 0 1 4.31-1.62v-3.37a2.2 2.2 0 0 1 2.19-2.19h4.58a2.2 2.2 0 0 1 2.19 2.19v3.69c1.476.447 2.885 1.089 4.19 1.91l2.39-2.39a2.2 2.2 0 0 1 3.1 0zm-45.57-14.26c1.803 5.985-3.55 11.677-9.634 10.246-4.557-1.072-7.266-5.764-5.916-10.246h15.55zm30.83 22.41c6.928 0 11.259 7.5 7.794 13.5s-12.124 6-15.588 0a9 9 0 0 1 7.794-13.5zm23.33-29.14c1.54 0 2.502 1.666 1.732 3s-2.694 1.333-3.464 0c-.175-.304-.268-.649-.268-1a2 2 0 0 1 2-2zm-13.44 0c1.54 0 2.502 1.666 1.732 3s-2.694 1.333-3.464 0c-.175-.304-.268-.649-.268-1a2 2 0 0 1 2-2zm6.72 0c1.54 0 2.502 1.666 1.732 3s-2.694 1.333-3.464 0c-.175-.304-.268-.649-.268-1a2 2 0 0 1 2-2z" fill-rule="evenodd" fill="#fff"/></svg>

<?xml version="1.0" encoding="utf-8"?>
<svg viewBox="91.817 75.327 122.88 101.9" width="122.88" height="101.9" xmlns="http://www.w3.org/2000/svg">
  <path class="cls-1" d="M 95.157 75.327 L 211.357 75.327 C 213.2 75.332 214.692 76.824 214.697 78.667 L 214.697 155.667 C 214.692 157.509 213.2 159.001 211.357 159.007 L 95.157 159.007 C 93.307 159.001 91.812 157.497 91.817 155.647 L 91.817 78.647 C 91.834 76.812 93.323 75.332 95.157 75.327 Z M 104.437 98.537 L 113.077 98.537 C 113.501 98.548 113.834 98.903 113.817 99.327 L 113.817 102.227 C 113.812 102.643 113.473 102.977 113.057 102.977 L 104.437 102.977 C 104.021 102.977 103.683 102.643 103.677 102.227 L 103.677 99.327 C 103.683 98.911 104.021 98.577 104.437 98.577 L 104.437 98.537 Z M 104.437 122.907 L 134.677 122.907 C 135.093 122.907 135.432 123.241 135.437 123.657 L 135.437 126.597 C 135.432 127.013 135.093 127.347 134.677 127.347 L 104.437 127.347 C 104.021 127.347 103.683 127.013 103.677 126.597 L 103.677 123.657 C 103.683 123.241 104.021 122.907 104.437 122.907 Z M 104.437 110.497 L 123.157 110.497 C 123.575 110.502 123.912 110.839 123.917 111.257 L 123.917 114.197 C 123.907 114.61 123.571 114.941 123.157 114.947 L 104.437 114.947 C 104.021 114.947 103.683 114.613 103.677 114.197 L 103.677 111.257 C 103.677 110.837 104.017 110.497 104.437 110.497 Z M 104.437 135.307 L 147.637 135.307 C 148.053 135.312 148.387 135.651 148.387 136.067 L 148.387 139.007 C 148.382 139.419 148.049 139.751 147.637 139.757 L 104.437 139.757 C 104.021 139.757 103.683 139.423 103.677 139.007 L 103.677 136.067 C 103.677 135.647 104.017 135.307 104.437 135.307 Z M 138.107 163.597 L 168.407 163.597 C 168.487 168.837 170.647 173.537 176.497 177.227 L 130.017 177.227 C 134.727 173.817 138.127 169.687 138.107 163.597 Z M 210.327 86.977 L 210.327 146.167 C 210.327 147.824 208.984 149.167 207.327 149.167 L 99.147 149.167 C 97.51 149.139 96.197 147.804 96.197 146.167 L 96.197 86.977 L 123.357 86.977 L 123.357 90.847 C 123.357 91.951 124.253 92.847 125.357 92.847 L 128.407 92.847 C 128.706 94.193 129.18 95.494 129.817 96.717 L 127.477 99.067 C 126.721 99.843 126.721 101.08 127.477 101.857 L 130.387 104.777 C 131.165 105.539 132.41 105.539 133.187 104.777 L 135.337 102.617 C 136.519 103.353 137.793 103.928 139.127 104.327 L 139.127 107.647 C 139.127 108.751 140.023 109.647 141.127 109.647 L 145.257 109.647 C 146.362 109.647 147.257 108.751 147.257 107.647 L 147.257 104.647 C 148.614 104.339 149.923 103.848 151.147 103.187 L 153.497 105.537 C 154.274 106.292 155.511 106.292 156.287 105.537 L 159.207 102.617 C 159.963 101.84 159.963 100.603 159.207 99.827 L 157.057 97.677 C 157.795 96.498 158.373 95.227 158.777 93.897 L 162.097 93.897 C 163.202 93.897 164.097 93.001 164.097 91.897 L 164.097 87.767 C 164.096 87.495 164.042 87.227 163.937 86.977 L 210.327 86.977 Z M 197.027 101.237 L 200.267 104.477 C 201.118 105.331 201.118 106.712 200.267 107.567 L 197.657 110.177 C 198.387 111.535 198.931 112.984 199.277 114.487 L 202.647 114.487 C 203.847 114.503 204.812 115.477 204.817 116.677 L 204.817 121.257 C 204.817 122.466 203.837 123.447 202.627 123.447 L 198.947 123.447 C 198.5 124.922 197.858 126.331 197.037 127.637 L 199.427 130.027 C 200.279 130.885 200.279 132.269 199.427 133.127 L 196.207 136.327 C 195.349 137.178 193.965 137.178 193.107 136.327 L 190.507 133.717 C 189.146 134.446 187.693 134.991 186.187 135.337 L 186.187 138.717 C 186.182 139.924 185.204 140.901 183.997 140.907 L 179.417 140.907 C 178.21 140.901 177.233 139.924 177.227 138.717 L 177.227 135.067 C 175.752 134.618 174.344 133.975 173.037 133.157 L 170.647 135.547 C 169.789 136.398 168.405 136.398 167.547 135.547 L 164.317 132.327 C 163.467 131.472 163.467 130.091 164.317 129.237 L 166.917 126.627 C 166.196 125.269 165.655 123.824 165.307 122.327 L 161.927 122.327 C 160.72 122.321 159.743 121.344 159.737 120.137 L 159.737 115.527 C 159.737 114.316 160.716 113.332 161.927 113.327 L 165.617 113.327 C 166.06 111.85 166.703 110.44 167.527 109.137 L 165.137 106.747 C 164.274 105.893 164.274 104.5 165.137 103.647 L 168.367 100.407 C 169.225 99.555 170.609 99.555 171.467 100.407 L 174.077 103.017 C 175.435 102.287 176.885 101.743 178.387 101.397 L 178.387 98.027 C 178.393 96.819 179.37 95.842 180.577 95.837 L 185.157 95.837 C 186.364 95.842 187.342 96.819 187.347 98.027 L 187.347 101.717 C 188.823 102.164 190.232 102.806 191.537 103.627 L 193.927 101.237 C 194.785 100.385 196.169 100.385 197.027 101.237 Z M 151.457 86.977 C 153.26 92.962 147.907 98.654 141.823 97.223 C 137.266 96.151 134.557 91.459 135.907 86.977 L 151.457 86.977 Z M 182.287 109.387 C 189.215 109.387 193.546 116.887 190.081 122.887 C 186.617 128.887 177.957 128.887 174.493 122.887 C 173.703 121.519 173.287 119.967 173.287 118.387 C 173.287 113.416 177.317 109.387 182.287 109.387 Z M 205.617 80.247 C 207.157 80.247 208.119 81.913 207.349 83.247 C 206.579 84.58 204.655 84.58 203.885 83.247 C 203.71 82.943 203.617 82.598 203.617 82.247 C 203.617 81.142 204.513 80.247 205.617 80.247 Z M 192.177 80.247 C 193.717 80.247 194.679 81.913 193.909 83.247 C 193.139 84.58 191.215 84.58 190.445 83.247 C 190.27 82.943 190.177 82.598 190.177 82.247 C 190.177 81.142 191.073 80.247 192.177 80.247 Z M 198.897 80.247 C 200.437 80.247 201.399 81.913 200.629 83.247 C 199.859 84.58 197.935 84.58 197.165 83.247 C 196.99 82.943 196.897 82.598 196.897 82.247 C 196.897 81.142 197.793 80.247 198.897 80.247 Z" style="fill-rule: evenodd; fill: rgb(255, 255, 255);"/>
</svg>
